dist/img/abstract01.svg

<svg width="547" height="583" viewBox="0 0 547 583" fill="none" xmlns="http://www.w3.org/2000/svg">
<path d="M0.612061 581.518C76.0609 581.518 137.224 519.627 137.224 443.28C137.224 366.934 76.0609 305.043 0.612061 305.043" stroke="#1B1B1B" stroke-miterlimit="10"/>
<path d="M137.212 304.561C183.743 304.561 221.464 266.391 221.464 219.306C221.464 172.222 183.743 134.052 137.212 134.052C90.6805 134.052 52.9596 172.222 52.9596 219.306C52.9596 266.391 90.6805 304.561 137.212 304.561Z" stroke="#1B1B1B" stroke-miterlimit="10"/>
<path d="M137.212 166.805C108.557 166.805 85.3276 190.311 85.3276 219.306H189.096C189.096 190.311 165.866 166.805 137.212 166.805Z" fill="#1B1B1B" stroke="#1B1B1B" stroke-miterlimit="10"/>
<path d="M137.212 271.501C108.557 271.501 85.3276 247.996 85.3276 219H189.096C189.096 247.996 165.866 271.501 137.212 271.501Z" stroke="#1B1B1B" stroke-miterlimit="10"/>
<path d="M273.348 529.017C319.879 529.017 357.6 490.847 357.6 443.762C357.6 396.677 319.879 358.507 273.348 358.507C226.817 358.507 189.096 396.677 189.096 443.762C189.096 490.847 226.817 529.017 273.348 529.017Z" stroke="#1B1B1B" stroke-miterlimit="10"/>
<path d="M273.348 496.264C302.003 496.264 325.232 472.758 325.232 443.762C325.232 414.766 302.003 391.261 273.348 391.261C244.693 391.261 221.464 414.766 221.464 443.762C221.464 472.758 244.693 496.264 273.348 496.264Z" stroke="#1B1B1B" stroke-miterlimit="10"/>
<path d="M341.892 323.592C301.241 347.579 273.824 392.181 273.824 443.238C273.824 391.989 246.216 347.194 205.28 323.303C225.367 311.647 248.596 305 273.348 305H273.824C298.671 305.096 321.9 311.84 341.892 323.592Z" fill="#1B1B1B"/>
<path d="M341.892 562.883C321.709 574.732 298.29 581.476 273.348 581.476C248.596 581.476 225.367 574.829 205.28 563.172C246.216 539.282 273.824 494.583 273.824 443.238C273.824 494.294 301.241 538.897 341.892 562.883Z" fill="#1B1B1B"/>
<path d="M165.493 38.7408C120.163 40.3434 61.2964 71.0261 66.8312 94.956C73.9193 125.602 160.414 78.3525 165.493 38.7408Z" fill="#1B1B1B"/>
<path d="M231.936 62.2509C225.441 67.6735 170.15 94.9817 179.822 111.677C189.494 128.372 240.195 82.78 205.615 50.0499C196.445 41.3709 181.85 38.1625 165.493 38.7408M41.5356 9.71919C86.1446 -0.843634 159.34 -9.30967 165.45 31.4097C165.81 33.8094 165.811 36.2601 165.493 38.7408M165.493 38.7408C120.163 40.3434 61.2964 71.0261 66.8312 94.956C73.9193 125.602 160.414 78.3525 165.493 38.7408Z" stroke="#1B1B1B"/>
<line x1="137" y1="304.5" x2="546" y2="304.5" stroke="#1B1B1B"/>
<path d="M409.388 305.561C408.745 305.561 408.209 305.561 407.566 305.561C320.885 242.893 392.137 181.31 369.744 144.555C349.171 110.944 284.026 135.881 275.562 139.242C279.633 119.618 287.776 101.511 299.027 85.8986C315.099 94.6807 447.746 63.5637 409.388 167.323C369.744 274.661 430.817 252 471.533 290.49C452.889 300.14 431.781 305.561 409.388 305.561Z" fill="#1B1B1B"/>
<path d="M299.884 249.941C282.848 226.847 272.776 198.332 272.776 167.323C272.776 164.721 272.883 162.227 272.99 159.734C277.169 157.999 334.606 143.5 342.5 179.5C350.394 215.5 282.526 214.487 299.884 249.941Z" fill="#1B1B1B"/>
<path d="M430 196C439 177 472.5 186 466 133.5C459.5 81.0001 476.462 46.8667 476.462 46.8667C479.14 48.3846 481.712 50.0109 484.176 51.6373C521.463 76.3575 546 118.967 546 167.323C546 201.476 533.785 232.702 513.535 256.771C514 238 511.853 184.904 484.176 208C456.5 231.097 421 215 430 196Z" fill="#1B1B1B"/>
<path d="M359.672 38.5181C375.101 32.4465 391.816 29.0854 409.388 29.0854C423.96 29.0854 437.996 31.3623 451.175 35.6992C451.175 35.6992 431.797 47.6232 445.5 82.5001C459.203 117.377 373.279 87.5248 359.672 38.5181Z" fill="#1B1B1B"/>
<rect x="273.5" y="29.5" width="272.22" height="275.48" rx="136.11" stroke="#1B1B1B"/>
<rect x="273.5" y="305.5" width="272.22" height="275.48" rx="136.11" stroke="#1B1B1B"/>
<rect x="136.5" y="305.5" width="272.22" height="275.48" rx="136.11" stroke="#1B1B1B"/>
<rect x="1.5" y="305.5" width="272.22" height="275.48" rx="136.11" stroke="#1B1B1B"/>
<path d="M137 581H547" stroke="#1B1B1B"/>
<rect x="273" y="29" width="273" height="552" rx="136.5" stroke="#1B1B1B"/>
</svg>

<svg xmlns="http://www.w3.org/2000/svg" fill="none" viewBox="0 0 547 583"><path stroke="#1B1B1B" stroke-miterlimit="10" d="M.612 581.518c75.449 0 136.612-61.891 136.612-138.238 0-76.346-61.163-138.237-136.612-138.237M137.212 304.561c46.531 0 84.252-38.17 84.252-85.255 0-47.084-37.721-85.254-84.252-85.254s-84.252 38.17-84.252 85.254c0 47.085 37.72 85.255 84.252 85.255z"/><path fill="#1B1B1B" stroke="#1B1B1B" stroke-miterlimit="10" d="M137.212 166.805c-28.655 0-51.884 23.506-51.884 52.501h103.768c0-28.995-23.23-52.501-51.884-52.501z"/><path stroke="#1B1B1B" stroke-miterlimit="10" d="M137.212 271.501c-28.655 0-51.884-23.505-51.884-52.501h103.768c0 28.996-23.23 52.501-51.884 52.501zM273.348 529.017c46.531 0 84.252-38.17 84.252-85.255 0-47.085-37.721-85.255-84.252-85.255s-84.252 38.17-84.252 85.255c0 47.085 37.721 85.255 84.252 85.255z"/><path stroke="#1B1B1B" stroke-miterlimit="10" d="M273.348 496.264c28.655 0 51.884-23.506 51.884-52.502 0-28.996-23.229-52.501-51.884-52.501s-51.884 23.505-51.884 52.501 23.229 52.502 51.884 52.502z"/><path fill="#1B1B1B" d="M341.892 323.592c-40.651 23.987-68.068 68.589-68.068 119.646 0-51.249-27.608-96.044-68.544-119.935C225.367 311.647 248.596 305 273.348 305h.476c24.847.096 48.076 6.84 68.068 18.592zM341.892 562.883c-20.183 11.849-43.602 18.593-68.544 18.593-24.752 0-47.981-6.647-68.068-18.304 40.936-23.89 68.544-68.589 68.544-119.934 0 51.056 27.417 95.659 68.068 119.645zM165.493 38.74c-45.33 1.603-104.197 32.286-98.662 56.216 7.088 30.646 93.583-16.603 98.662-56.215z"/><path stroke="#1B1B1B" d="M231.936 62.25c-6.495 5.424-61.786 32.732-52.114 49.427 9.672 16.695 60.373-28.897 25.793-61.627-9.17-8.68-23.765-11.887-40.122-11.31M41.536 9.72C86.145-.845 159.34-9.31 165.45 31.41c.36 2.4.361 4.85.043 7.33m0 0c-45.33 1.603-104.197 32.286-98.662 56.216 7.088 30.646 93.583-16.603 98.662-56.215zM137 304.5h409"/><path fill="#1B1B1B" d="M409.388 305.561h-1.822c-86.681-62.668-15.429-124.251-37.822-161.006-20.573-33.611-85.718-8.674-94.182-5.313a139.786 139.786 0 0 1 23.465-53.343c16.072 8.782 148.719-22.335 110.361 81.424C369.744 274.661 430.817 252 471.533 290.49c-18.644 9.65-39.752 15.071-62.145 15.071z"/><path fill="#1B1B1B" d="M299.884 249.941c-17.036-23.094-27.108-51.609-27.108-82.618 0-2.602.107-5.096.214-7.589 4.179-1.735 61.616-16.234 69.51 19.766 7.894 36-59.974 34.987-42.616 70.441zM430 196c9-19 42.5-10 36-62.5s10.462-86.633 10.462-86.633c2.678 1.518 5.25 3.144 7.714 4.77C521.463 76.357 546 118.967 546 167.323c0 34.153-12.215 65.379-32.465 89.448C514 238 511.853 184.904 484.176 208 456.5 231.097 421 215 430 196zM359.672 38.518a135.274 135.274 0 0 1 49.716-9.433c14.572 0 28.608 2.277 41.787 6.614 0 0-19.378 11.924-5.675 46.801s-72.221 5.025-85.828-43.982z"/><rect width="272.22" height="275.48" x="273.5" y="29.5" stroke="#1B1B1B" rx="136.11"/><rect width="272.22" height="275.48" x="273.5" y="305.5" stroke="#1B1B1B" rx="136.11"/><rect width="272.22" height="275.48" x="136.5" y="305.5" stroke="#1B1B1B" rx="136.11"/><rect width="272.22" height="275.48" x="1.5" y="305.5" stroke="#1B1B1B" rx="136.11"/><path stroke="#1B1B1B" d="M137 581h410"/><rect width="273" height="552" x="273" y="29" stroke="#1B1B1B" rx="136.5"/></svg>
